X: 236
M:  C|
L: 1/8
K: Gm
|:\
|: B4 def2 | A4 B3A | GABG ^F2D2 | g^fgd edec | dcdB D2G2 | GAB2 A2G2 :|
|: G2FE DCB,A, | G,4 GABG | ABcA ^F2D2 | G2FE DCB,A, | G,2f2 d2cB | [A2A]BcA B2G2 :|

